symbolic/16x16/panel/indicator-trashindicator-attention.svg

<svg xmlns="http://www.w3.org/2000/svg" width="16" height="16" version="1.1">
 <defs>
  <style id="current-color-scheme" type="text/css">
   .ColorScheme-Text { color:#323a41; } .ColorScheme-Highlight { color:#4285f4; } .ColorScheme-NeutralText { color:#ff9800; } .ColorScheme-PositiveText { color:#4caf50; } .ColorScheme-NegativeText { color:#f44336; }
  </style>
 </defs>
 <path style="fill:currentColor" class="ColorScheme-Text" d="M 6.002,0.9902 C 5.002,0.9902 5.002,1.9902 5.002,1.9902 H 2.002 C 2.002,1.9902 1,1.9937 1,2.9941 V 2.9961 3.9961 L 14,3.9941 V 2.9941 C 14,1.9941 13.002,1.9902 13.002,1.9902 H 10.002 C 10.002,1.9902 10.002,0.9902 9.002,0.9902 Z M 2,4.9961 C 2,4.9961 0.9612,8.3 1.002,10 1.032,11.38 2.002,14 2.002,14 2.002,14.524 2.4784,15 3.002,15 H 11.002 12.002 C 12.526,15 13.002,14.524 13.002,14 13.002,14 13.969,11.377 14.002,10.004 14.042,8.304 13.002,5.0039 13.002,5.0039 Z"/>
</svg>

<svg xmlns="http://www.w3.org/2000/svg" width="16" height="16"><defs><style id="current-color-scheme" type="text/css"></style></defs><path style="fill:currentColor;color:#323a41" d="M6.002.99c-1 0-1 1-1 1h-3S1 1.994 1 2.994v1.002l13-.002v-1c0-1-.998-1.004-.998-1.004h-3s0-1-1-1zM2 4.996S.961 8.3 1.002 10c.03 1.38 1 4 1 4 0 .524.476 1 1 1h9c.524 0 1-.476 1-1 0 0 .967-2.623 1-3.996.04-1.7-1-5-1-5z"/></svg>
